client/assets/images/header/social_icons/linkedin.svg

<svg width="20" height="20" viewBox="0 0 20 20" fill="none" xmlns="http://www.w3.org/2000/svg">
<g id="icons8_linkedin 1">
<path id="Vector" d="M15.8333 2.5H4.16667C3.24583 2.5 2.5 3.24583 2.5 4.16667V15.8333C2.5 16.7542 3.24583 17.5 4.16667 17.5H15.8333C16.7542 17.5 17.5 16.7542 17.5 15.8333V4.16667C17.5 3.24583 16.7542 2.5 15.8333 2.5ZM7.5 14.1667H5.3975V8.33333H7.5V14.1667ZM6.41167 7.26417C5.76917 7.26417 5.34 6.83583 5.34 6.26417C5.34 5.6925 5.76833 5.26417 6.4825 5.26417C7.125 5.26417 7.55417 5.6925 7.55417 6.26417C7.55417 6.83583 7.12583 7.26417 6.41167 7.26417ZM15 14.1667H12.965V10.9783C12.965 10.0967 12.4225 9.89333 12.2192 9.89333C12.0158 9.89333 11.3375 10.0292 11.3375 10.9783C11.3375 11.1142 11.3375 14.1667 11.3375 14.1667H9.235V8.33333H11.3375V9.1475C11.6083 8.6725 12.1508 8.33333 13.1683 8.33333C14.1858 8.33333 15 9.1475 15 10.9783V14.1667Z" fill="white"/>
</g>
</svg>

<svg xmlns="http://www.w3.org/2000/svg" width="20" height="20" fill="none"><path d="M15.833 2.5H4.167c-.921 0-1.667.746-1.667 1.667v11.667c0 .921.746 1.667 1.667 1.667h11.667c.921 0 1.667-.746 1.667-1.667V4.167c0-.921-.746-1.667-1.667-1.667zM7.5 14.167H5.398V8.333H7.5v5.833zM6.412 7.264c-.643 0-1.072-.428-1.072-1s.428-1 1.143-1c.643 0 1.072.428 1.072 1s-.428 1-1.142 1zM15 14.167h-2.035v-3.188c0-.882-.543-1.085-.746-1.085s-.882.136-.882 1.085v3.188H9.235V8.333h2.103v.814c.271-.475.813-.814 1.831-.814S15 9.148 15 10.978v3.188z" fill="#fff"/></svg>
